svg/file-icons/V8.svg

<svg version="1.1" xmlns="http://www.w3.org/2000/svg" width="512px" height="512px"><path d="M466.3615417,164.7304535l-19.1654053,34.3806763h-31.1381531l19.318634-34.3806763H466.3615417z M71.6932831,164.7304535H44.3289566l18.4961624,34.6280212l28.3966904-0.1868134L71.6932831,164.7304535z M223.0652771,425.7135315l29.2245789,54.131897l29.8021545-53.7131958C263.3666077,430.2495422,242.6539764,430.1396484,223.0652771,425.7135315z M379.6715088,293.1014404c0,96.7464294-105.4529724,157.5411987-189.3597565,109.1679993c-76.026062-43.8298645-83.166481-147.7685852-21.4215088-202.8896179c-35.2328186-47.766037-24.5467987-120.4704514,32.0616608-153.105835c69.783783-40.2311592,157.4871521,10.3307991,157.4871521,90.7930908c0,24.0155487-7.8135681,45.3669281-20.631134,62.436142C363.0731201,221.9963531,379.6715088,254.719223,379.6715088,293.1014404z M241.4399719,158.5975952c16.8636475,9.7220764,38.0576172-2.4964905,38.0576172-21.9406128s-21.1940002-31.6627045-38.0576172-21.9406357S224.576355,148.8755646,241.4399719,158.5975952z M290.0096741,293.1014404c0-27.5063477-29.9817505-44.7911682-53.8376007-31.0379639c-23.8558655,13.7531738-23.8558502,48.3227539,0.0000305,62.0758972C260.0279236,337.8925476,290.0096741,320.6077881,290.0096741,293.1014404z M150.0682983,197.375351c-16.5585175-28.512558-21.3735809-64.7203522-10.249527-97.9708099l-9.9636993-17.7813416H0l38.2556305,71.7294769h40.0657578l46.5408096,82.0810699C131.2343445,221.1328278,139.6763458,208.4785156,150.0682983,197.375351z M382.3709106,235.8362732l46.3479614-82.4835968h43.9851685L512,82.8599167H378.4347839l-10.6200867,18.3437805c10.7254944,35.6403885,4.8701782,68.6543503-10.8298645,96.1715317C367.757843,209.4978027,376.4235229,222.2566833,382.3709106,235.8362732z"/></svg>

<svg xmlns="http://www.w3.org/2000/svg" width="512" height="512"><path d="m466.362 164.73-19.166 34.381h-31.138l19.319-34.38h30.985zm-394.669 0H44.33l18.496 34.628 28.397-.186-19.529-34.442zm151.372 260.984 29.225 54.131 29.802-53.713c-18.725 4.118-39.438 4.008-59.027-.418zM379.672 293.1c0 96.747-105.453 157.542-189.36 109.168-76.026-43.83-83.167-147.768-21.422-202.89-35.233-47.765-24.547-120.47 32.062-153.105 69.784-40.231 157.487 10.33 157.487 90.793 0 24.016-7.814 45.367-20.631 62.436 25.265 22.493 41.864 55.216 41.864 93.598zM241.44 158.598c16.864 9.722 38.058-2.497 38.058-21.941s-21.194-31.663-38.058-21.94-16.864 34.159 0 43.88zM290.01 293.1c0-27.506-29.982-44.79-53.838-31.038-23.856 13.754-23.856 48.323 0 62.076 23.856 13.754 53.838-3.531 53.838-31.038zm-139.942-95.726c-16.558-28.512-21.373-64.72-10.25-97.97l-9.963-17.782H0l38.256 71.73H78.32l46.541 82.08c6.372-14.3 14.814-26.954 25.206-38.058zm232.303 38.461 46.348-82.483h43.985L512 82.86H378.435l-10.62 18.344c10.725 35.64 4.87 68.654-10.83 96.171 10.773 12.123 19.439 24.882 25.386 38.461z"/></svg>
